img/logo_G_light.svg

<svg width="155" height="155" fill="none" xmlns="http://www.w3.org/2000/svg"><path d="M97.008 40.1693c1.9888 1.9888 3.791 3.9651 5.407 5.9289 1.591 1.939 2.983 3.9526 4.176 6.0407 1.169 2.0633 2.113 4.2509 2.834 6.5628.721 2.2622 1.181 4.7108 1.38 7.3458.472 5.8916-.348 11.5595-2.461 17.0036-2.113 5.3944-5.382 10.304-9.8071 14.7289-2.7594 2.759-5.7673 5.046-9.0238 6.861-3.2317 1.79-6.5877 3.132-10.0679 4.027-3.4803.845-7.0103 1.243-10.59 1.194-3.5548-.075-7.0351-.572-10.4407-1.492-3.4306-.945-6.7244-2.324-9.8815-4.139-3.1819-1.84-6.0904-4.077-8.7255-6.712-2.7593-2.7593-5.0836-5.7548-6.9729-8.9865-1.8644-3.2565-3.2814-6.6125-4.2509-10.0679-.9695-3.5051-1.4791-7.0475-1.5288-10.6272-.0249-3.6046.4101-7.147 1.3051-10.6272.8949-3.4803 2.2746-6.8487 4.139-10.1052 1.8395-3.2814 4.1639-6.3266 6.9729-9.1357 2.7594-2.7593 5.6927-5.0712 8.8001-6.9356 3.1074-1.8645 6.339-3.2814 9.695-4.2509 3.3311-.9944 6.7616-1.5413 10.2916-1.6407 3.53-.0994 7.0973.2361 10.7018 1.0068l-2.0508 8.017c-6.0408-1.2181-11.7956-1.0814-17.2646.4102-5.4938 1.4667-10.5029 4.4622-15.0273 8.9865-2.1627 2.1627-3.9525 4.5492-5.3695 7.1594-1.3921 2.5853-2.4113 5.2949-3.0577 8.1289-.6214 2.809-.8949 5.6678-.8203 8.5763.0994 2.8837.5469 5.7424 1.3424 8.5764.8203 2.809 1.9763 5.5062 3.4678 8.0916 1.4915 2.5853 3.3187 4.9593 5.4814 7.1221 2.2125 2.2124 4.6238 4.0768 7.234 5.5932s5.3198 2.6848 8.1289 3.5055c2.809.77 5.6678 1.193 8.5763 1.267 2.9334.05 5.8046-.261 8.6136-.932 2.834-.6958 5.5685-1.7647 8.2035-3.2066 2.6102-1.4666 5.034-3.3186 7.2713-5.5559 2.7593-2.7594 4.9469-5.8419 6.5626-9.2476 1.641-3.4305 2.585-6.9356 2.834-10.5153.274-3.6046-.162-7.1719-1.305-10.7018-1.168-3.5549-3.1447-6.8487-5.9289-9.8815L76.835 70.5594l-5.1085-5.1085L97.008 40.1693z" fill="#fff"/><path d="M34.584 110.168c4.1885 0 7.584-3.395 7.584-7.584 0-4.1885-3.3955-7.584-7.584-7.584C30.3955 95 27 98.3955 27 102.584c0 4.189 3.3955 7.584 7.584 7.584z" fill="url(#paint0_linear)"/><defs><linearGradient id="paint0_linear" x1="34.584" y1="95" x2="42" y2="103" gradientUnits="userSpaceOnUse"><stop stop-color="#F1C424"/><stop offset="1" stop-color="#FF005C"/></linearGradient></defs></svg>

<svg width="155" height="155" viewBox="0 0 155 155" fill="none" xmlns="http://www.w3.org/2000/svg">
<path d="M97.008 40.1693C98.9968 42.1581 100.799 44.1344 102.415 46.0982C104.006 48.0372 105.398 50.0508 106.591 52.1389C107.76 54.2022 108.704 56.3898 109.425 58.7017C110.146 60.9639 110.606 63.4125 110.805 66.0475C111.277 71.9391 110.457 77.607 108.344 83.0511C106.231 88.4455 102.962 93.3551 98.5369 97.78C95.7775 100.539 92.7696 102.826 89.5131 104.641C86.2814 106.431 82.9254 107.773 79.4452 108.668C75.9649 109.513 72.4349 109.911 68.8552 109.862C65.3004 109.787 61.8201 109.29 58.4145 108.37C54.9839 107.425 51.6901 106.046 48.533 104.231C45.3511 102.391 42.4426 100.154 39.8075 97.519C37.0482 94.7597 34.7239 91.7642 32.8346 88.5325C30.9702 85.276 29.5532 81.92 28.5837 78.4646C27.6142 74.9595 27.1046 71.4171 27.0549 67.8374C27.03 64.2328 27.465 60.6904 28.36 57.2102C29.2549 53.7299 30.6346 50.3615 32.499 47.105C34.3385 43.8236 36.6629 40.7784 39.4719 37.9693C42.2313 35.21 45.1646 32.8981 48.272 31.0337C51.3794 29.1692 54.611 27.7523 57.967 26.7828C61.2981 25.7884 64.7286 25.2415 68.2586 25.1421C71.7886 25.0427 75.3559 25.3782 78.9604 26.1489L76.9096 34.1659C70.8688 32.9478 65.114 33.0845 59.645 34.5761C54.1512 36.0428 49.1421 39.0383 44.6177 43.5626C42.455 45.7253 40.6652 48.1118 39.2482 50.722C37.8561 53.3073 36.8369 56.0169 36.1905 58.8509C35.5691 61.6599 35.2956 64.5187 35.3702 67.4272C35.4696 70.3109 35.9171 73.1696 36.7126 76.0036C37.5329 78.8126 38.6889 81.5098 40.1804 84.0952C41.6719 86.6805 43.4991 89.0545 45.6618 91.2173C47.8743 93.4297 50.2856 95.2941 52.8958 96.8105C55.506 98.3269 58.2156 99.4953 61.0247 100.316C63.8337 101.086 66.6925 101.509 69.601 101.583C72.5344 101.633 75.4056 101.322 78.2146 100.651C81.0486 99.9552 83.7831 98.8863 86.4181 97.4444C89.0283 95.9778 91.4521 94.1258 93.6894 91.8885C96.4487 89.1291 98.6363 86.0466 100.252 82.6409C101.893 79.2104 102.837 75.7053 103.086 72.1256C103.36 68.521 102.924 64.9537 101.781 61.4238C100.613 57.8689 98.6363 54.5751 95.8521 51.5423L76.835 70.5594L71.7265 65.4509L97.008 40.1693Z" fill="white"/>
<path d="M34.584 110.168C38.7725 110.168 42.168 106.773 42.168 102.584C42.168 98.3955 38.7725 95 34.584 95C30.3955 95 27 98.3955 27 102.584C27 106.773 30.3955 110.168 34.584 110.168Z" fill="url(#paint0_linear)"/>
<defs>
<linearGradient id="paint0_linear" x1="34.584" y1="95" x2="42" y2="103" gradientUnits="userSpaceOnUse">
<stop stop-color="#F1C424"/>
<stop offset="1" stop-color="#FF005C"/>
</linearGradient>
</defs>
</svg>
